svgs/sharp-solid/ski-boot-ski.svg

<svg xmlns="http://www.w3.org/2000/svg" viewBox="0 0 640 512"><!--! Font Awesome Pro 6.6.0 by @fontawesome - https://fontawesome.com License - https://fontawesome.com/license (Commercial License) Copyright 2024 Fonticons, Inc. --><path d="M113.3 256L80 416l400 0 0-128L366 240l-46 0-16 0 0-32 16 0 52.7 0 10-48L336 160l-16 0 0-32 16 0 53.3 0L416 0 352 0l-6.7 32L288 32c0 1.1-.1 2.2-.3 3.3l-43.3 208L241.7 256l-13 0-115.3 0zm6.7-32l95.7 0 40-192L160 32 120 224zM640 416l0-32-64 0 0 32 0 32L32 448 0 448l0 64 32 0 576 0 32 0 0-32 0-64z"/></svg>

<svg xmlns="http://www.w3.org/2000/svg" viewBox="0 0 640 512"><!--! Font Awesome Pro 6.5.2 by @fontawesome - https://fontawesome.com License - https://fontawesome.com/license (Commercial License) Copyright 2024 Fonticons, Inc. --><path d="M113.3 256L80 416H480V288L366 240H320 304V208h16 52.7l10-48H336 320V128h16 53.3L416 0H352l-6.7 32H288c0 1.1-.1 2.2-.3 3.3l-43.3 208L241.7 256h-13H113.3zm6.7-32h95.7l40-192H160L120 224zM640 416V384H576v32 32H32 0v64H32 608h32V480 416z"/></svg>
